X: 258
T: The Fryar and the Nun
T: The Frier and the Nun
P: Longways for as many as will
%R: march, reel
B: "The Compleat Country Dancing-Master" printed by John Walsh, London ca. 1740
S: 6: CCDM1 http://imslp.org/wiki/The_Compleat_Country_Dancing-Master_(Various) V.1 p.141 #192 (282)
Z: 2013 John Chambers <jc:trillian.mit.edu>
M: C|
L: 1/4
K: D
% - - - - - - - - - - - - - - - - - - - - - - - - -
A |\
dd dd | d2 dd | ed cd | e3 g |\
fd dd | d d2 d | cA AB | =c3 c |
BG GA | B>c dB | AG FG | A3 =c |\
BG GA | B>c dB | ed c>d | d4 |]
% - - - - - - - - - - - - - - - - - - - - - - - - -
%%begintext align
%% Lead up Men a D. turn round, We. go up a D. and turn
%% single, We. go down a D. and turn single; Men down and turn S .:|
%%endtext
%%sep 1 1 300
%%begintext align
%% The two uppermost Men fall back and turn single, We.
%% as much, changing over with your own Men, change We.
%% change at the same time, then change Places with his
%% own .| Do thus to all the rest following :|
%%endtext
%%sep 1 1 300
%%begintext align
%% First and second Men change Places by both Hands,
%% We. as much, Men and We. meet sideways, turn all
%% single, Hands and go half round, turn single :|
%% [CCDM1]
%%endtext
%%sep 1 8 500

%%sep 1 1 500
%%sep 1 1 500
